X:1
T:Title
%%score { ( 1 4 ) | ( 2 3 ) }
L:1/8
M:6/4
K:G
V:1 treble nm="Grand Piano"
V:4 treble 
V:2 bass 
V:3 bass 
V:1
 z6 z4 D>G | [DB]2 B2 B2 [DB]2 G2 A2 | [DB]6 [GB]4 [=FA]2 | [EG]2 F2 G2 [CFA]2 [EG]2 [G,CE]2 | %4
 [B,D]6- [B,D]4 D>G | [DB]2 B2 B2 [DB]2 G2 c2 | [DB]6 [DB]4 BB | [^CB]2 A2 G2 .[CE]4 B2 | A6 d6 | %9
 d6 B6 | [DB]2 [DB]2 A2 G6 | [B,G]2 [B,G]2 [B,G]2 [DB]2 [DA]2 [DG]2 | A6 d6 | d6 B6 | %14
 [^DB]2 [DB]2 [FA]2 [EG]4 [EG]2 | [Gd]2 [Gd]2 [Ec]2 [DB]2 [B,G]2 [CA]2 |[M:5/4] [B,G]6 z4 |] %17
V:2
 z6 z4 B,>B, | z2[K:treble] G2 E2[K:bass] z2 B,2 C2 | G,,2 B,,2 D,2 G,2 D,2 B,,2 | %3
 z2 ^D2 E2 z2 G,2 C,2 | G,,2 B,,2 D,2 G,4 B,>B, | z2[K:treble] G2 E2[K:bass] z2 B,2 E2 | %6
 G,,2 B,,2 D,2 G,4 DD | z2 ^C2 C2 z2[K:treble] G2 C2 | [F,C]6 [A,F]6 | %9
 [G,B,D]2[K:bass] [G,B,]2 [G,B,]2 [G,B,D]2 [G,B,]2 [G,B,]2 | [G,,G,]2 [B,,G,]2 [C,F,C]2 [G,B,]6 | %11
 [G,,G,]2 [G,,G,]2 [G,,G,]2 [G,,G,]2 [G,,F,]2 [B,,G,]2 | [F,D]6[K:treble] [A,F]6 | %13
 [G,B,D]2 [G,B,]2 [G,B,]2 [G,B,D]2[K:bass] [G,B,]2 [G,B,]2 | %14
 [B,,B,]2 [B,,F,]2 [^D,B,]2 [E,B,]4 [C,C]2 | [B,,G,]2 [B,,G,]2 [C,G,]2 [D,G,]4 [D,F,]2 | %16
[M:5/4] [G,,G,]6 z4 |] %17
V:3
 x12 | [G,,D,G,]6[K:treble][K:bass] [G,,D,G,]6 | x12 | [C,G,]6 .C,6 | x12 | %5
 [G,,D,G,]6[K:treble][K:bass] [G,,D,G,]6 | x12 | [A,,E,]6 A,,6[K:treble] | D,12 | x2[K:bass] x10 | %10
 x12 | x12 | D,12[K:treble] | x8[K:bass] x4 | x12 | x12 |[M:5/4] x10 |] %17
V:4
 x12 | x12 | x12 | x12 | x12 | x12 | x12 | z6 E,6 | x12 | z2 D2 D2 z2 D2 D2 | x12 | x12 | x12 | %13
 z2 D2 D2 z2 D2 D2 | x12 | x12 |[M:5/4] x10 |] %17

